X: 2
T: The Connemara Stockings
R: reel
M: 4/4
L: 1/8
K: Dmaj
|: d2 cd BAFE | DE{FG}FD {EF}EDB,A, | DEFA {c}BAed |1 cABc dABc :|2 cABc d2 Bc |{d}cBFB dBfB | cAEA cAec | dBFB {d}cBfB | dcAc ~B3 c |d2 {g}fe fded | caec ABcA | ~d3 A ~c3 A | ~B3 c dAFA |]


Tune 614	Setting 614

